X: 12480
T: Farewell To Erin
R: reel
M: 4/4
K: Dmajor
D2 (3FED FA~A2|fedf edBc|dBAF ~G3B|AGFD EDEA|
D2 (3FED FA~A2|fedf edBc|dBAF ~G3B|1 AGFD EDDA,:|2 AGFE EDDA||
|:defg ~a3f|g2fg eA (3cBA|defg afdf|gefd eAef|
defg ~a3f|g2fg eABc|dBAF ~G3B|1 AGFD EDDA:|2 AGFD EDDA,||

